X:64
T:Smith’s Fancy. JJo.064
S:J.Jones MS,1801,N.Shrops.
A:N Shropshire
Z:Neil Brookes 2006
M:6/8
L:1/8
Q:3/8=120
K:C
f|e2e efd|g2ec2e|dBd dBd|gfee2 d|!
e2e efd|g2ec2c|cBA agf|efd [c3G3C,3]:|!
|:c2c edc|g2_BB2A|d2d fed|a2c cHBe|!
f2f efe|ded cde|f2f e2d|e2^fHg2 a/b/c’/a/g/f/a/f/ Hg2a/f/|!
e2e efd|g2ec2e|dBd dBd|gfe e2d|!
e2e efd|g2ec2c|cBA agf|efd c3:|

